icons/communication/email-check-24.svg

<svg width="24" height="24" viewBox="0 0 24 24" fill="none" xmlns="http://www.w3.org/2000/svg">
<g clip-path="url(#clip0_248_34)">
<path d="M22.7953 16.265C23.0797 15.9638 23.0661 15.4892 22.765 15.2047C22.4638 14.9203 21.9891 14.9339 21.7047 15.235L17.46 19.2L15.2545 17.195C14.948 16.9164 14.4737 16.939 14.195 17.2455C13.9164 17.552 13.939 18.0263 14.2455 18.305L16.9955 20.805C17.2979 21.0798 17.7647 21.0621 18.0453 20.765L22.7953 16.265Z" fill="black"/>
<path fill-rule="evenodd" clip-rule="evenodd" d="M0 4.75C0 3.7835 0.783502 3 1.75 3H22.25C23.2165 3 24 3.7835 24 4.75V11.375C24 11.7892 23.6642 12.125 23.25 12.125C22.8358 12.125 22.5 11.7892 22.5 11.375V7.18716L12.7516 11.8231C12.276 12.0492 11.724 12.0492 11.2484 11.8231L1.5 7.18715V18.75C1.5 18.8881 1.61193 19 1.75 19H9.25C9.66421 19 10 19.3358 10 19.75C10 20.1642 9.66421 20.5 9.25 20.5H1.75C0.783502 20.5 0 19.7165 0 18.75V4.75ZM1.5 5.52618L11.8926 10.4685C11.9606 10.5008 12.0394 10.5008 12.1074 10.4685L22.5 5.52618V4.75C22.5 4.61193 22.3881 4.5 22.25 4.5H1.75C1.61193 4.5 1.5 4.61193 1.5 4.75V5.52618Z" fill="black"/>
</g>
<defs>
<clipPath id="clip0_248_34">
<rect width="24" height="24" fill="white"/>
</clipPath>
</defs>
</svg>

<svg xmlns="http://www.w3.org/2000/svg" width="24" height="24"><path d="M22.795 16.265a.75.75 0 00-1.09-1.03L17.46 19.2l-2.206-2.005a.75.75 0 00-1.008 1.11l2.75 2.5a.75.75 0 001.05-.04l4.75-4.5z"/><path fill-rule="evenodd" d="M0 4.75C0 3.784.784 3 1.75 3h20.5c.966 0 1.75.784 1.75 1.75v6.625a.75.75 0 01-1.5 0V7.187l-9.748 4.636a1.75 1.75 0 01-1.504 0L1.5 7.187V18.75c0 .138.112.25.25.25h7.5a.75.75 0 010 1.5h-7.5A1.75 1.75 0 010 18.75v-14zm1.5.776l10.393 4.943a.25.25 0 00.214 0L22.5 5.526V4.75a.25.25 0 00-.25-.25H1.75a.25.25 0 00-.25.25v.776z"/></svg>
